X: 190
T: Peggy's Jig
T: Jig, G
C: Mike MacDougall
L: 1/16
M: 6/8
K: G
|: B2d2B2 G2B2d2| c2e2c2 E4G2| F2A2F2 D2F2A2| G2B2G2 D4c2|
 B2d2B2 G2B2d2| c2e2c2 E4G2| F2E2D2 A2F2A2| [1 G6 G4c2| [2 G6 G2B2c2:| 
|: d2e2d2 d2B2d2| g2b2g2 d4g2| f2a2f2 A4B2| c2e2c2 B4c2|
d2e2d2 d2B2d2| g2b2g2 d4g2| [1 f2e2d2 c2A2F2| G6 G2B2c2:|[2 f2e2d2 a2f2d2| g6 g2d2c2|| 
D: Mike MacDougall, Tape for Fr. Hector
